public/images/icons/32x32/science_32_white.svg

<svg height="32" viewBox="0 0 32 32" width="32" xmlns="http://www.w3.org/2000/svg"><g fill="#fff" transform="translate(8 3)"><path d="m13.3553333 9.34266667c0-.31909786-.2586799-.57777778-.5777777-.57777778h-9.53333338c-.31909785 0-.57777778.25867992-.57777778.57777778 0 .31909785.25867993.57777777.57777778.57777777h1.53977778v12.67066666c.05219312 1.7437894 1.48087412 3.1303486 3.22544444 3.1303486 1.74457033 0 3.17325136-1.3865592 3.22544446-3.1303486v-12.67066666h1.5397778c.1537361.00076869.3014394-.05976463.4104193-.16820241.10898-.10843778.1702473-.25583732.1702473-.40957536zm-3.2731111 13.24844443c-.041591 1.1130937-.95601844 1.9939915-2.06988887 1.9939915-1.11387042 0-2.02829788-.8808978-2.06988889-1.9939915v-1.2595555h1.85755556c.31909786 0 .57777778-.25868.57777778-.5777778 0-.3190979-.25867992-.5777778-.57777778-.5777778h-1.86044444v-2.6h1.86044444c.31909786 0 .57777778-.2586799.57777778-.5777778 0-.3190978-.25867992-.5777778-.57777778-.5777778h-1.86044444v-2.6h1.86044444c.31909786 0 .57777778-.2586799.57777778-.5777777 0-.3190979-.25867992-.5777778-.57777778-.5777778h-1.86044444v-2.74444446h4.14266664zm-6.18800171-16.86244443c-.00116703.9794202.58792202 1.86305037 1.49245306 2.23866837.90453104.37561801 1.946272.16921072 2.6392405-.52293085s.90061951-1.73363533.52608181-2.63861422c-.3745377-.9049789-1.25746385-1.4951233-2.23688475-1.4951233-1.33589264 0-2.41929474 1.0821083-2.42089062 2.418zm3.68333838 0c.001165.51230346-.30669454.97475815-.7797786 1.17134827-.47308405.19659012-1.01802634.0885173-1.38028054-.27373689-.36225419-.3622542-.47032701-.90719649-.27373689-1.38028055s.65904481-.78094359 1.17134827-.77977859c.69656976.00159185 1.26085591.565878 1.26244776 1.26244776zm3.86244113-2.86288889c-1.0625959 0-1.924.86140414-1.924 1.924s.8614041 1.924 1.924 1.924 1.924-.86140414 1.924-1.924c0-.51027653-.2027066-.99965346-.5635266-1.36047345-.3608199-.36081999-.8501969-.56352655-1.3604734-.56352655zm0 2.68955555c-.4244001 0-.7684444-.34404429-.7684444-.76844444s.3440443-.76844445.7684444-.76844445.7684499.3440443.7684499.76844445c.0007626.20430421-.0798591.40050405-.2240537.54524075-.1441946.14473671-.3400905.22609258-.5443962.22609258zm-9.53333333.43333334c-.50827422 0-.96650049.306177-1.16100862.77576115-.19450812.46958415-.08699305 1.01009889.27241109 1.36950304.35940415.35940414.89991889.46691921 1.36950304.27241109.46958415-.19450813.77576115-.6527344.77576115-1.16100862 0-.69403783-.56262883-1.25666666-1.25666666-1.25666666zm0 1.35488889c-.04115494-.00001681-.07819327-.02497608-.09365888-.06311456-.01546562-.03813849-.00627221-.08184529.02324738-.11052146s.07347446-.03659912.11114874-.02003477c.03767427.01656435.06154972.05431043.06037387.09544856.00001149.0265585-.01073251.05198969-.02978238.07049527-.01904986.01850558-.04478172.02850809-.07132873.02772696z"/><path d="m14.6553333 9.72977778c-1.0641913 0-1.9268889.86269752-1.9268889 1.92688892 0 1.0641913.8626976 1.9268889 1.9268889 1.9268889 1.0641914 0 1.9268889-.8626976 1.9268889-1.9268889 0-.5110427-.2030109-1.0011545-.5643727-1.3625162-.3613617-.3613618-.8514735-.56437272-1.3625162-.56437272zm0 2.69533332c-.4259956 0-.7713333-.3453377-.7713333-.7713333 0-.4259957.3453377-.7713334.7713333-.7713334.4259957 0 .7713334.3453377.7713334.7713334-.0015913.424867-.3464634.7684474-.7713334.7684444zm-4.70311108-10.76977777c0-.81369953-.6596338-1.47333333-1.47333333-1.47333333s-1.47333333.6596338-1.47333333 1.47333333.6596338 1.47333334 1.47333333 1.47333334c.81304022-.00158953 1.47174381-.66029312 1.47333333-1.47333334zm-1.79111111 0c0-.17550382.14227396-.31777777.31777778-.31777777s.31777778.14227395.31777778.31777777-.14227396.31777778-.31777778.31777778-.31777778-.14227396-.31777778-.31777778zm-5.09888889 9.95799997c0-.7977446-.6466998-1.4444444-1.44444444-1.4444444s-1.44444445.6466998-1.44444445 1.4444444c0 .7977447.64669981 1.4444445 1.44444445 1.4444445s1.44444444-.6466998 1.44444444-1.4444445zm-1.73333333 0c0-.1595489.12933996-.2888889.28888889-.2888889s.28888889.12934.28888889.2888889c0 .159549-.12933996.2888889-.28888889.2888889s-.28888889-.1293399-.28888889-.2888889z"/></g></svg>

<svg xmlns="http://www.w3.org/2000/svg" width="32" height="32" viewBox="0 0 32 32">
  <g fill="#FFF" transform="translate(8 3)">
    <path d="M13.3553333 9.34266667C13.3553333 9.02356881 13.0966534 8.76488889 12.7775556 8.76488889L3.24422222 8.76488889C2.92512437 8.76488889 2.66644444 9.02356881 2.66644444 9.34266667 2.66644444 9.66176452 2.92512437 9.92044444 3.24422222 9.92044444L4.784 9.92044444 4.784 22.5911111C4.83619312 24.3349005 6.26487412 25.7214597 8.00944444 25.7214597 9.75401477 25.7214597 11.1826958 24.3349005 11.2348889 22.5911111L11.2348889 9.92044444 12.7746667 9.92044444C12.9284028 9.92121313 13.0761061 9.86067981 13.185086 9.75224203 13.294066 9.64380425 13.3553333 9.49640471 13.3553333 9.34266667zM10.0822222 22.5911111C10.0406312 23.7042048 9.12620376 24.5851026 8.01233333 24.5851026 6.89846291 24.5851026 5.98403545 23.7042048 5.94244444 22.5911111L5.94244444 21.3315556 7.8 21.3315556C8.11909786 21.3315556 8.37777778 21.0728756 8.37777778 20.7537778 8.37777778 20.4346799 8.11909786 20.176 7.8 20.176L5.93955556 20.176 5.93955556 17.576 7.8 17.576C8.11909786 17.576 8.37777778 17.3173201 8.37777778 16.9982222 8.37777778 16.6791244 8.11909786 16.4204444 7.8 16.4204444L5.93955556 16.4204444 5.93955556 13.8204444 7.8 13.8204444C8.11909786 13.8204444 8.37777778 13.5617645 8.37777778 13.2426667 8.37777778 12.9235688 8.11909786 12.6648889 7.8 12.6648889L5.93955556 12.6648889 5.93955556 9.92044444 10.0822222 9.92044444 10.0822222 22.5911111zM3.89422049 5.72866667C3.89305346 6.70808687 4.48214251 7.59171704 5.38667355 7.96733504 6.29120459 8.34295305 7.33294555 8.13654576 8.02591405 7.44440419 8.71888255 6.75226262 8.92653356 5.71076886 8.55199586 4.80578997 8.17745816 3.90081107 7.29453201 3.31066667 6.31511111 3.31066667 4.97921847 3.31066667 3.89581637 4.39277497 3.89422049 5.72866667L3.89422049 5.72866667zM7.57755887 5.72866667C7.57872387 6.24097013 7.27086433 6.70342482 6.79778027 6.90001494 6.32469622 7.09660506 5.77975393 6.98853224 5.41749973 6.62627805 5.05524554 6.26402385 4.94717272 5.71908156 5.14376284 5.2459975 5.34035296 4.77291344 5.80280765 4.46505391 6.31511111 4.46621891 7.01168087 4.46781076 7.57596702 5.03209691 7.57755887 5.72866667zM11.44 2.86577778C10.3774041 2.86577778 9.516 3.72718192 9.516 4.78977778 9.516 5.85237364 10.3774041 6.71377778 11.44 6.71377778 12.5025959 6.71377778 13.364 5.85237364 13.364 4.78977778 13.364 4.27950125 13.1612934 3.79012432 12.8004734 3.42930433 12.4396535 3.06848434 11.9502765 2.86577778 11.44 2.86577778zM11.44 5.55533333C11.0155999 5.55533333 10.6715556 5.21128904 10.6715556 4.78688889 10.6715556 4.36248874 11.0155999 4.01844444 11.44 4.01844444 11.8644001 4.01844444 12.2084499 4.36248874 12.2084499 4.78688889 12.2092125 4.9911931 12.1285908 5.18739294 11.9843962 5.33212964 11.8402016 5.47686635 11.6443057 5.55822222 11.44 5.55822222L11.44 5.55533333zM1.90666667 5.98866667C1.39839245 5.98866667.940166178 6.29484367.745658054 6.76442782.551149931 7.23401197.658664997 7.77452671 1.01806914 8.13393086 1.37747329 8.493335 1.91798803 8.60085007 2.38757218 8.40634195 2.85715633 8.21183382 3.16333333 7.75360755 3.16333333 7.24533333 3.16333333 6.5512955 2.6007045 5.98866667 1.90666667 5.98866667zM1.90666667 7.34355556C1.86551173 7.34353875 1.8284734 7.31857948 1.81300779 7.280441 1.79754217 7.24230251 1.80673558 7.19859571 1.83625517 7.16991954 1.86577476 7.14124337 1.90972963 7.13332042 1.94740391 7.14988477 1.98507818 7.16644912 2.00895363 7.2041952 2.00777778 7.24533333 2.00778927 7.27189183 1.99704527 7.29732302 1.9779954 7.3158286 1.95894554 7.33433418 1.93321368 7.34433669 1.90666667 7.34355556z"/>
    <path d="M14.6553333 9.72977778C13.591142 9.72977778 12.7284444 10.5924753 12.7284444 11.6566667 12.7284444 12.720858 13.591142 13.5835556 14.6553333 13.5835556 15.7195247 13.5835556 16.5822222 12.720858 16.5822222 11.6566667 16.5822222 11.145624 16.3792113 10.6555122 16.0178495 10.2941505 15.6564878 9.9327887 15.166376 9.72977778 14.6553333 9.72977778L14.6553333 9.72977778zM14.6553333 12.4251111C14.2293377 12.4251111 13.884 12.0797734 13.884 11.6537778 13.884 11.2277821 14.2293377 10.8824444 14.6553333 10.8824444 15.081329 10.8824444 15.4266667 11.2277821 15.4266667 11.6537778 15.4250754 12.0786448 15.0802033 12.4222252 14.6553333 12.4222222L14.6553333 12.4251111zM9.95222222 1.65533333C9.95222222.841633802 9.29258842.182 8.47888889.182 7.66518936.182 7.00555556.841633802 7.00555556 1.65533333 7.00555556 2.46903286 7.66518936 3.12866667 8.47888889 3.12866667 9.29192911 3.12707714 9.9506327 2.46837355 9.95222222 1.65533333L9.95222222 1.65533333zM8.16111111 1.65533333C8.16111111 1.47982951 8.30338507 1.33755556 8.47888889 1.33755556 8.65439271 1.33755556 8.79666667 1.47982951 8.79666667 1.65533333 8.79666667 1.83083715 8.65439271 1.97311111 8.47888889 1.97311111 8.30338507 1.97311111 8.16111111 1.83083715 8.16111111 1.65533333L8.16111111 1.65533333zM3.06222222 11.6133333C3.06222222 10.8155887 2.41552242 10.1688889 1.61777778 10.1688889.820033139 10.1688889.173333333 10.8155887.173333333 11.6133333.173333333 12.411078.820033139 13.0577778 1.61777778 13.0577778 2.41552242 13.0577778 3.06222222 12.411078 3.06222222 11.6133333zM1.32888889 11.6133333C1.32888889 11.4537844 1.45822885 11.3244444 1.61777778 11.3244444 1.77732671 11.3244444 1.90666667 11.4537844 1.90666667 11.6133333 1.90666667 11.7728823 1.77732671 11.9022222 1.61777778 11.9022222 1.45822885 11.9022222 1.32888889 11.7728823 1.32888889 11.6133333z"/>
  </g>
</svg>
